X:1
T:Beauty and the Beast
T:Beauty and the Beast
T:Arranged by Javier Navas Sánchez
T:Alan Menken
C:Alan Menken
%%score { 1 | 2 }
L:1/8
Q:1/4=60
M:4/4
K:C
V:1 treble nm="Piano" snm="Pno."
V:2 bass 
V:1
 z4 efde | c4 G4 | z4 efde | c4 g4 | z4 EGBc | F8 | z4 EGBc | d8 | z4 edeg | c4 cBce | F4 efde | %11
 c8 | z4 EGBc | F8 | z4 EGBc | d8 | z4 edeg | c4 cBce | F4 efde | c8 | z4 edeg | c4 cBce | %22
 F4 efde | c8 |] %24
V:2
 C2 C2 C2 C2 | C2 C2 C2 C2 | C2 C2 C2 C2 | C4 C4 | C2 C2 C2 C2 | F,2 F,2 F,2 F,2 | C2 C2 C2 C2 | %7
 G,2 G,2 G,2 G,2 | C2 C2 C2 C2 | A,2 A,2 A,2 A,2 | F,2 F,2 F,2 F,2 | C2 C2 C2 C2 | C2 C2 C2 C2 | %13
 F,2 F,2 F,2 F,2 | C2 C2 C2 C2 | G,2 G,2 G,2 G,2 | C2 C2 C2 C2 | A,2 A,2 A,2 A,2 | %18
 F,2 F,2 F,2 F,2 | C2 C2 C2 C2 | C2 C2 C2 C2 | A,2 A,2 A,2 A,2 | F,2 F,2 F,2 F,2 | C8 |] %24

